build/img/icons/icon-footer_logo.svg

<svg width="96" height="14" viewBox="0 0 96 14" fill="none" xmlns="http://www.w3.org/2000/svg">
<path d="M0.54 10.48C2.976 10.66 4.896 10.75 6.3 10.75C6.48 10.75 6.63 10.69 6.75 10.57C6.87 10.45 6.93 10.3 6.93 10.12V9.49H3.06C2.244 9.49 1.59 9.244 1.098 8.752C0.606 8.26 0.36 7.606 0.36 6.79V6.16C0.36 5.344 0.606 4.69 1.098 4.198C1.59 3.706 2.244 3.46 3.06 3.46H9.18V5.8H4.14C3.96 5.8 3.81 5.86 3.69 5.98C3.57 6.1 3.51 6.25 3.51 6.43C3.51 6.61 3.57 6.76 3.69 6.88C3.81 7 3.96 7.06 4.14 7.06H7.38C8.196 7.06 8.85 7.306 9.342 7.798C9.834 8.29 10.08 8.944 10.08 9.76V10.48C10.08 11.296 9.834 11.95 9.342 12.442C8.85 12.934 8.196 13.18 7.38 13.18C5.256 13.18 2.976 13.06 0.54 12.82V10.48ZM18.0014 13C16.8374 13.12 15.6974 13.18 14.5814 13.18C13.7654 13.18 13.1114 12.934 12.6194 12.442C12.1274 11.95 11.8814 11.296 11.8814 10.48V5.89H10.8014V3.46H11.8814L12.2414 1.3H15.0314V3.46H17.2814V5.89H15.0314V10.03C15.0314 10.21 15.0914 10.36 15.2114 10.48C15.3314 10.6 15.4814 10.66 15.6614 10.66H18.0014V13ZM22.7834 5.53C22.3034 5.53 22.0634 5.77 22.0634 6.25V7.24H25.1234V6.25C25.1234 5.77 24.8834 5.53 24.4034 5.53H22.7834ZM27.9134 12.82C25.5974 13.06 23.4974 13.18 21.6134 13.18C20.7974 13.18 20.1434 12.934 19.6514 12.442C19.1594 11.95 18.9134 11.296 18.9134 10.48V6.16C18.9134 5.26 19.1654 4.558 19.6694 4.054C20.1854 3.538 20.8934 3.28 21.7934 3.28H25.3934C26.2934 3.28 26.9954 3.538 27.4994 4.054C28.0154 4.558 28.2734 5.26 28.2734 6.16V9.49H22.0634V10.21C22.0634 10.39 22.1234 10.54 22.2434 10.66C22.3634 10.78 22.5134 10.84 22.6934 10.84C23.8814 10.84 25.6214 10.75 27.9134 10.57V12.82ZM33.5763 5.53C33.0963 5.53 32.8563 5.77 32.8563 6.25V7.24H35.9163V6.25C35.9163 5.77 35.6763 5.53 35.1963 5.53H33.5763ZM38.7063 12.82C36.3903 13.06 34.2903 13.18 32.4063 13.18C31.5903 13.18 30.9363 12.934 30.4443 12.442C29.9523 11.95 29.7063 11.296 29.7063 10.48V6.16C29.7063 5.26 29.9583 4.558 30.4623 4.054C30.9783 3.538 31.6863 3.28 32.5863 3.28H36.1863C37.0863 3.28 37.7883 3.538 38.2923 4.054C38.8083 4.558 39.0663 5.26 39.0663 6.16V9.49H32.8563V10.21C32.8563 10.39 32.9163 10.54 33.0363 10.66C33.1563 10.78 33.3063 10.84 33.4863 10.84C34.6743 10.84 36.4143 10.75 38.7063 10.57V12.82ZM45.5393 13C44.7353 13.12 43.9673 13.18 43.2353 13.18C42.5153 13.18 41.9093 12.934 41.4173 12.442C40.9253 11.95 40.6793 11.296 40.6793 10.48V0.399999H43.8293V10.03C43.8293 10.21 43.8893 10.36 44.0093 10.48C44.1293 10.6 44.2793 10.66 44.4593 10.66H45.5393V13ZM58.583 6.34C58.583 6.16 58.523 6.01 58.403 5.89C58.283 5.77 58.133 5.71 57.953 5.71H57.503C56.999 5.71 56.561 5.734 56.189 5.782C55.829 5.83 55.547 5.866 55.343 5.89V10.57H57.863C58.343 10.57 58.583 10.33 58.583 9.85V6.34ZM55.343 3.64C56.507 3.4 57.527 3.28 58.403 3.28H59.033C59.849 3.28 60.503 3.526 60.995 4.018C61.487 4.51 61.733 5.164 61.733 5.98V10.12C61.733 11.02 61.475 11.728 60.959 12.244C60.455 12.748 59.753 13 58.853 13H52.193V0.399999H55.343V3.64ZM67.1351 10.66C67.7711 10.66 68.4911 10.54 69.2951 10.3V9.22H66.6851C66.5051 9.22 66.3551 9.28 66.2351 9.4C66.1151 9.52 66.0551 9.67 66.0551 9.85V10.03C66.0551 10.21 66.1151 10.36 66.2351 10.48C66.3551 10.6 66.5051 10.66 66.6851 10.66H67.1351ZM63.8051 3.64C66.0011 3.4 67.9811 3.28 69.7451 3.28C70.5611 3.28 71.2151 3.526 71.7071 4.018C72.1991 4.51 72.4451 5.164 72.4451 5.98V13H69.6551L69.4751 12.1C68.9111 12.472 68.3291 12.748 67.7291 12.928C67.1411 13.096 66.6431 13.18 66.2351 13.18H65.6051C64.7891 13.18 64.1351 12.934 63.6431 12.442C63.1511 11.95 62.9051 11.296 62.9051 10.48V9.67C62.9051 8.854 63.1511 8.2 63.6431 7.708C64.1351 7.216 64.7891 6.97 65.6051 6.97H69.2951V6.25C69.2951 6.07 69.2351 5.92 69.1151 5.8C68.9951 5.68 68.8451 5.62 68.6651 5.62C67.8851 5.62 67.0211 5.656 66.0731 5.728C65.1371 5.8 64.3811 5.854 63.8051 5.89V3.64ZM78.9202 13C78.1162 13.12 77.3482 13.18 76.6162 13.18C75.8962 13.18 75.2902 12.934 74.7982 12.442C74.3062 11.95 74.0602 11.296 74.0602 10.48V0.399999H77.2102V10.03C77.2102 10.21 77.2702 10.36 77.3902 10.48C77.5102 10.6 77.6602 10.66 77.8402 10.66H78.9202V13ZM85.0373 13C84.2333 13.12 83.4653 13.18 82.7333 13.18C82.0133 13.18 81.4073 12.934 80.9153 12.442C80.4233 11.95 80.1773 11.296 80.1773 10.48V0.399999H83.3273V10.03C83.3273 10.21 83.3873 10.36 83.5073 10.48C83.6273 10.6 83.7773 10.66 83.9573 10.66H85.0373V13ZM85.9345 10.48C88.3705 10.66 90.2905 10.75 91.6945 10.75C91.8745 10.75 92.0245 10.69 92.1445 10.57C92.2645 10.45 92.3245 10.3 92.3245 10.12V9.49H88.4545C87.6385 9.49 86.9845 9.244 86.4925 8.752C86.0005 8.26 85.7545 7.606 85.7545 6.79V6.16C85.7545 5.344 86.0005 4.69 86.4925 4.198C86.9845 3.706 87.6385 3.46 88.4545 3.46H94.5745V5.8H89.5345C89.3545 5.8 89.2045 5.86 89.0845 5.98C88.9645 6.1 88.9045 6.25 88.9045 6.43C88.9045 6.61 88.9645 6.76 89.0845 6.88C89.2045 7 89.3545 7.06 89.5345 7.06H92.7745C93.5905 7.06 94.2445 7.306 94.7365 7.798C95.2285 8.29 95.4745 8.944 95.4745 9.76V10.48C95.4745 11.296 95.2285 11.95 94.7365 12.442C94.2445 12.934 93.5905 13.18 92.7745 13.18C90.6505 13.18 88.3705 13.06 85.9345 12.82V10.48Z" fill="white"/>
</svg>

<svg width="96" height="14" fill="none" xmlns="http://www.w3.org/2000/svg"><path d="M.54 10.48c2.436.18 4.356.27 5.76.27.18 0 .33-.06.45-.18a.61.61 0 00.18-.45v-.63H3.06c-.816 0-1.47-.246-1.962-.738S.36 7.606.36 6.79v-.63c0-.816.246-1.47.738-1.962S2.244 3.46 3.06 3.46h6.12V5.8H4.14a.61.61 0 00-.45.18.61.61 0 00-.18.45c0 .18.06.33.18.45s.27.18.45.18h3.24c.816 0 1.47.246 1.962.738s.738 1.146.738 1.962v.72c0 .816-.246 1.47-.738 1.962s-1.146.738-1.962.738c-2.124 0-4.404-.12-6.84-.36v-2.34zM18.001 13c-1.164.12-2.304.18-3.42.18-.816 0-1.47-.246-1.962-.738s-.738-1.146-.738-1.962V5.89h-1.08V3.46h1.08l.36-2.16h2.79v2.16h2.25v2.43h-2.25v4.14c0 .18.06.33.18.45s.27.18.45.18h2.34V13zm4.782-7.47c-.48 0-.72.24-.72.72v.99h3.06v-.99c0-.48-.24-.72-.72-.72h-1.62zm5.13 7.29c-2.316.24-4.416.36-6.3.36-.816 0-1.47-.246-1.962-.738s-.738-1.146-.738-1.962V6.16c0-.9.252-1.602.756-2.106.516-.516 1.224-.774 2.124-.774h3.6c.9 0 1.602.258 2.106.774.516.504.774 1.206.774 2.106v3.33h-6.21v.72c0 .18.06.33.18.45s.27.18.45.18c1.188 0 2.928-.09 5.22-.27v2.25zm5.663-7.29c-.48 0-.72.24-.72.72v.99h3.06v-.99c0-.48-.24-.72-.72-.72h-1.62zm5.13 7.29c-2.316.24-4.416.36-6.3.36-.816 0-1.47-.246-1.962-.738s-.738-1.146-.738-1.962V6.16c0-.9.252-1.602.756-2.106.516-.516 1.224-.774 2.124-.774h3.6c.9 0 1.602.258 2.106.774.516.504.774 1.206.774 2.106v3.33h-6.21v.72c0 .18.06.33.18.45s.27.18.45.18c1.188 0 2.928-.09 5.22-.27v2.25zm6.833.18c-.804.12-1.572.18-2.304.18-.72 0-1.326-.246-1.818-.738s-.738-1.146-.738-1.962V.4h3.15v9.63c0 .18.06.33.18.45s.27.18.45.18h1.08V13zm13.044-6.66a.61.61 0 00-.18-.45.61.61 0 00-.45-.18h-.45c-.504 0-.942.024-1.314.072-.36.048-.642.084-.846.108v4.68h2.52c.48 0 .72-.24.72-.72V6.34zm-3.24-2.7c1.164-.24 2.184-.36 3.06-.36h.63c.816 0 1.47.246 1.962.738s.738 1.146.738 1.962v4.14c0 .9-.258 1.608-.774 2.124-.504.504-1.206.756-2.106.756h-6.66V.4h3.15v3.24zm11.792 7.02c.636 0 1.356-.12 2.16-.36V9.22h-2.61a.61.61 0 00-.45.18.61.61 0 00-.18.45v.18c0 .18.06.33.18.45s.27.18.45.18h.45zm-3.33-7.02c2.196-.24 4.176-.36 5.94-.36.816 0 1.47.246 1.962.738s.738 1.146.738 1.962V13h-2.79l-.18-.9a6.622 6.622 0 01-1.746.828c-.588.168-1.086.252-1.494.252h-.63c-.816 0-1.47-.246-1.962-.738s-.738-1.146-.738-1.962v-.81c0-.816.246-1.47.738-1.962s1.146-.738 1.962-.738h3.69v-.72a.61.61 0 00-.18-.45.61.61 0 00-.45-.18c-.78 0-1.644.036-2.592.108-.936.072-1.692.126-2.268.162V3.64zM78.92 13c-.804.12-1.572.18-2.304.18-.72 0-1.326-.246-1.818-.738s-.738-1.146-.738-1.962V.4h3.15v9.63c0 .18.06.33.18.45s.27.18.45.18h1.08V13zm6.117 0c-.804.12-1.572.18-2.304.18-.72 0-1.326-.246-1.818-.738s-.738-1.146-.738-1.962V.4h3.15v9.63c0 .18.06.33.18.45s.27.18.45.18h1.08V13zm.897-2.52c2.437.18 4.356.27 5.76.27.18 0 .33-.06.45-.18a.61.61 0 00.18-.45v-.63h-3.87c-.816 0-1.47-.246-1.961-.738-.492-.492-.739-1.146-.739-1.962v-.63c0-.816.246-1.47.739-1.962.492-.492 1.145-.738 1.962-.738h6.12V5.8h-5.04a.61.61 0 00-.45.18.61.61 0 00-.18.45c0 .18.06.33.18.45s.27.18.45.18h3.24c.816 0 1.47.246 1.962.738s.738 1.146.738 1.962v.72c0 .816-.246 1.47-.738 1.962s-1.146.738-1.962.738a69.98 69.98 0 01-6.84-.36v-2.34z" fill="#fff"/></svg>
